X: 32537
T: Planxty Drew
R: jig
M: 6/8
K: Gdorian
GA|BAG Bcd|cdB AGF|GDG G2 G/A/|BGG G2 G/A/|
BAG Bcd|cdB AGF|Ggg a/g/fd|cAF G||
BA|GDG Bcd|Ggg gaf|gfd c/B/AG|Fff f2 f/g/|
af/g/a/f/ ge/f/g/e/|fd/e/f/d/ cA/B/c/A/|Ggg a/g/fd|cAF G||

